ukui-icon-theme-default/scalable/actions/view-more-symbolic.svg

<?xml version="1.0" encoding="iso-8859-1"?>
<!-- Generator: Adobe Illustrator 24.0.0, SVG Export Plug-In . SVG Version: 6.00 Build 0)  -->
<svg version="1.1" id="v" xmlns="http://www.w3.org/2000/svg" xmlns:xlink="http://www.w3.org/1999/xlink" x="0px" y="0px"
	 viewBox="0 0 16 16" style="enable-background:new 0 0 16 16;" xml:space="preserve">
<title>16</title>
<g id="_16">
	<path style="fill:#808080;" d="M9,13v2H7v-2H9 M9,12H7c-0.552,0-1,0.448-1,1v2c0,0.552,0.448,1,1,1h2c0.552,0,1-0.448,1-1v-2
		C10,12.448,9.552,12,9,12z"/>
	<path style="fill:#808080;" d="M9,7v2H7V7H9 M9,6H7C6.448,6,6,6.448,6,7v2c0,0.552,0.448,1,1,1h2c0.552,0,1-0.448,1-1V7
		C10,6.448,9.552,6,9,6z"/>
	<path style="fill:#808080;" d="M9,1v2H7V1H9 M9,0H7C6.448,0,6,0.448,6,1v2c0,0.552,0.448,1,1,1h2c0.552,0,1-0.448,1-1V1
		C10,0.448,9.552,0,9,0z"/>
</g>
</svg>

<svg id="v" xmlns="http://www.w3.org/2000/svg" viewBox="0 0 16 16"><defs><style>.cls-1{fill:gray;}</style></defs><title>16</title><g id="_16" data-name="16"><path class="cls-1" d="M9,13v2H7V13H9m0-1H7a1,1,0,0,0-1,1v2a1,1,0,0,0,1,1H9a1,1,0,0,0,1-1V13a1,1,0,0,0-1-1Z"/><path class="cls-1" d="M9,7V9H7V7H9M9,6H7A1,1,0,0,0,6,7V9a1,1,0,0,0,1,1H9a1,1,0,0,0,1-1V7A1,1,0,0,0,9,6Z"/><path class="cls-1" d="M9,1V3H7V1H9M9,0H7A1,1,0,0,0,6,1V3A1,1,0,0,0,7,4H9a1,1,0,0,0,1-1V1A1,1,0,0,0,9,0Z"/></g></svg>
